static/img/common/ico-w.svg

<svg width="25" height="25" viewBox="0 0 25 25" fill="none" xmlns="http://www.w3.org/2000/svg">
<path d="M12.5 0.25C19.2655 0.25 24.75 5.73451 24.75 12.5C24.75 19.2655 19.2655 24.75 12.5 24.75C5.73451 24.75 0.25 19.2655 0.25 12.5C0.25 5.73451 5.73451 0.25 12.5 0.25Z" fill="#333333" stroke="white" stroke-width="0.5"/>
<path d="M8.0419 19L4.75781 7.36364H7.02486L9.12145 15.9148H9.2294L11.468 7.36364H13.5305L15.7749 15.9205H15.8771L17.9737 7.36364H20.2408L16.9567 19H14.8771L12.5476 10.8352H12.4567L10.1214 19H8.0419Z" fill="white"/>
</svg>

<svg xmlns="http://www.w3.org/2000/svg" width="25" height="25" fill="none" viewBox="0 0 25 25"><path fill="#333" stroke="#fff" stroke-width=".5" d="M12.5.25c6.765 0 12.25 5.485 12.25 12.25S19.265 24.75 12.5 24.75.25 19.265.25 12.5 5.735.25 12.5.25Z"/><path fill="#fff" d="M8.042 19 4.758 7.364h2.267l2.096 8.55h.108l2.239-8.55h2.063l2.244 8.557h.102l2.097-8.557h2.267L16.957 19h-2.08l-2.33-8.165h-.09L10.12 19z"/></svg>
